!!!COM: Pawzi, Mohamed
!!!CDT: 1918-1966
!!!OTL: National Anthem, Algeria
!!!ENC: Davis, Matthew J.
!!Vocal Line Only
**kern
*clefG2 
*k[b-] 
*F:
*M2/4
!Begin Instrumental Introduction
=1-
1r
=2
1r
=3
1r
=4
1r
=5
1r
==!|:6
!The repeat section in measures 6-14 are realized
8.f
16f
8.f
16f
=7
1r
=8
1r
=9
1r
=10
1r
=11
1r
=12
1r
=13
!(first ending, measure 13)
1r
==6
!The repeat section in measures 6-14 are realized
8.f
16f
8.f
16f
=7
1r
=8
1r
=9
1r
=10
1r
=11
1r
=12
1r
!End Instrumental Introduction
==14
!(second ending, measure 14)
4r
8a
8a
==!|:15
!The repeat section in measured 15-26 are realized
2f
=16
4e
8.d
16e
=17
8.f
16f
8.e
16d
=18
[2f
=19
8f]
8r
4r
=20
4r
8a
8a
=21
2f
=22
4e
8.d
16e
=23
8.f
16f
8.e
16d
=24
[2f
=25
8f]
8r
4r
=26
!(first ending)
4r
8a
8a
==15
!The repeat section in measured 15-26 are realized
2f
=16
4e
8.d
16e
=17
8.f
16f
8.e
16d
=18
[2f
=19
8f]
8r
4r
=20
4r
8a
8a
=21
2f
=22
4e
8.d
16e
=23
8.f
16f
8.e
16d
=24
[2f
=25
8f]
8r
4r
==27
!(second ending)
4r
8.f
16g
=28
8.a
16f
8.g
16a
=29
8.b-
16g
8.a
16b-
=30
[2cc
=31
4cc]
8.f
16g
=32
8.a
16f
8.g
16a
=33
8.b-
16g
8.a
16b-
=34
[2cc
=35
4cc]
8.f
16f
=36
8dd
8cc
8dd
8cc
=37
8dd
8cc
8b-
8a
=38
4cc
4cc
=39
4r
8.f
16f
=40
8dd
8cc
8dd
8cc
=41
8dd
8cc
8b-
8a
=42
4cc
4cc
=43
4r
8.b-
16cc
=44
4a
8.a
16b-
=45
4g
8.g
16a
=46
[2f
=47
8f]
8r
4r
!Measures 6-47(end) repeat from here.  [Fine D. (symbol) al Fine]
==|!
*-
